!!!OTL: 174i. Maedchen und Lorbeerbaum.
!!!ODT: 1890
!!!ARE: Europa, Mitteleuropa, Deutschland, Westerwald; Limburg
!!!SCT: E0174E
!!!TXL: @@DE
!!!YEM: Copyright 1995, estate of Helmut Schaffrath.
**kern	**text
*ICvox	*
*M3/4	*
*k[f#]	*
*G:	*
!LO:TX:a:t=Ziemlich bewegt.	!
!LO:TX:a:t=Weſterwald und Limburger Gegend 1890.	!
{8d	Es
=1	=1
8e	wollt
8d	ein
(<4b	Mäd-
8a)	-chen
8g	ʒum
=2	=2
8.b/	Tan-
16a	-ʒe
4a	gehn,
8r}	.
{8g	das
=3	=3
8g	war
8b	ſo
4.dd	ſchön
8b	ge-
=4	=4
4b/	-klei-
4a	-det.
8r}	.
{16aL	Was
16bJ	.
=5	=5
8cc	traf
8ee	ſie
(4ee	auf
8dd)	.
8cc	dem
=6	=6
8b	We-
8dd	-ge
4.g}	an?
{8b	ein'n
=7	=7
8a	Lor-
8ee	-beer-
4.dd	-baum,
8cc	war
=8	=8
8ccL	grü-
8ddJ	.
4b	-ne.
8r}	.
{16aL	Was
16bJ	.
=9	=9
8cc	traf
8ee	ſie
(4ee	auf
8dd)	.
8cc	dem
=10	=10
8b	We-
8dd	-ge
4.g}	an?
{8b	ein'n
=11	=11
8a	Lor-
8ee	-beer-
4.dd	-baum,
8cc	war
=12	=12
8ccL	grü-
8ddJ	.
4b	-ne.
8r}	.
==	==
!!!AGN: erzaehlendes Volks - Lied, Sage, Pflanzen - Maerchen, Moral - Lied
!!!ONB: ESAC (Essen Associative Code) Database: ERK1
!!!AMT: simple triple
!!!AIN: vox
!!!EED: Helmut Schaffrath
!!!EEV: 1.0
!!!RDF**kern: < = below
!!!GTL: Thiersage und Pflanzenmaerchen
!!!URL-scan: https://rosdok.uni-rostock.de/mcrviewer/recordIdentifier/rosdok_ppn745146120/iview2/phys_0606.iview2?x=-128.7727644188933&y=106.82304101763293&scale=0.5870222003877484&rotation=0&layout=singlePageLayout
!!!ENC: Anna Maria Matuszewska
!!!EEV: 2024/04/12
*-	*-
